Newaita-dark/.places-mint/32/folder-git.svg

<?xml version="1.0" encoding="UTF-8"?>
<svg xmlns="http://www.w3.org/2000/svg" xmlns:xlink="http://www.w3.org/1999/xlink" width="32px" height="32px" viewBox="0 0 32 32" version="1.1">
<defs>
<linearGradient id="linear0" gradientUnits="userSpaceOnUse" x1="254" y1="233.5" x2="254" y2="254.666672" gradientTransform="matrix(0.062506,0,0,0.062506,-0.00000381506,13.438787)">
<stop offset="0" style="stop-color:rgb(0%,0%,0%);stop-opacity:0.27451;"/>
<stop offset="1" style="stop-color:rgb(0%,0%,0%);stop-opacity:0;"/>
</linearGradient>
<radialGradient id="radial0" gradientUnits="userSpaceOnUse" cx="450.908936" cy="189.579361" fx="450.908936" fy="189.579361" r="21.166656" gradientTransform="matrix(0.00000017417,-0.0781325,-0.140638,-0.000000101539,54.115213,63.595334)">
<stop offset="0" style="stop-color:rgb(0%,0%,0%);stop-opacity:0.313726;"/>
<stop offset="0.222222" style="stop-color:rgb(0%,0%,0%);stop-opacity:0.27451;"/>
<stop offset="1" style="stop-color:rgb(0%,0%,0%);stop-opacity:0;"/>
</radialGradient>
<radialGradient id="radial1" gradientUnits="userSpaceOnUse" cx="450.908936" cy="189.579361" fx="450.908936" fy="189.579361" r="21.166656" gradientTransform="matrix(-0.00000017417,0.0781325,0.140638,0.000000101539,-22.362178,-7.527477)">
<stop offset="0" style="stop-color:rgb(0%,0%,0%);stop-opacity:0.313726;"/>
<stop offset="0.222222" style="stop-color:rgb(0%,0%,0%);stop-opacity:0.27451;"/>
<stop offset="1" style="stop-color:rgb(0%,0%,0%);stop-opacity:0;"/>
</radialGradient>
<radialGradient id="radial2" gradientUnits="userSpaceOnUse" cx="450.908936" cy="189.579361" fx="450.908936" fy="189.579361" r="21.166656" gradientTransform="matrix(-0.00000017417,-0.0781325,0.140638,-0.000000101539,-22.362178,63.595334)">
<stop offset="0" style="stop-color:rgb(0%,0%,0%);stop-opacity:0.313726;"/>
<stop offset="0.222222" style="stop-color:rgb(0%,0%,0%);stop-opacity:0.27451;"/>
<stop offset="1" style="stop-color:rgb(0%,0%,0%);stop-opacity:0;"/>
</radialGradient>
<radialGradient id="radial3" gradientUnits="userSpaceOnUse" cx="450.908936" cy="189.579361" fx="450.908936" fy="189.579361" r="21.166656" gradientTransform="matrix(0.00000017417,0.0781325,-0.140638,0.000000101539,54.115211,-7.527477)">
<stop offset="0" style="stop-color:rgb(0%,0%,0%);stop-opacity:0.313726;"/>
<stop offset="0.222222" style="stop-color:rgb(0%,0%,0%);stop-opacity:0.27451;"/>
<stop offset="1" style="stop-color:rgb(0%,0%,0%);stop-opacity:0;"/>
</radialGradient>
<linearGradient id="linear1" gradientUnits="userSpaceOnUse" x1="254" y1="-147.5" x2="254" y2="-31.083334" gradientTransform="matrix(0.062506,0,0,0.062506,0.00000124975,13.438781)">
<stop offset="0" style="stop-color:rgb(64.313728%,64.313728%,64.313728%);stop-opacity:0;"/>
<stop offset="1" style="stop-color:rgb(100%,100%,100%);stop-opacity:0.196078;"/>
</linearGradient>
<linearGradient id="linear2" gradientUnits="userSpaceOnUse" x1="254" y1="233.5" x2="254" y2="-105.166656" gradientTransform="matrix(0.062506,0,0,0.062506,-0.00000181239,13.438783)">
<stop offset="0" style="stop-color:rgb(34.509805%,34.509805%,34.509805%);stop-opacity:0;"/>
<stop offset="1" style="stop-color:rgb(98.039216%,98.039216%,98.039216%);stop-opacity:0.196078;"/>
</linearGradient>
</defs>
<g id="surface1">
<path style=" stroke:none;fill-rule:nonzero;fill:url(#linear0);" d="M 3.96875 28.035156 L 27.785156 28.035156 L 27.785156 29.355469 L 3.96875 29.355469 Z M 3.96875 28.035156 "/>
<path style=" stroke:none;fill-rule:nonzero;fill:url(#radial0);" d="M 27.785156 28.035156 L 30.429688 28.035156 L 30.429688 26.710938 L 27.785156 26.710938 Z M 27.785156 28.035156 "/>
<path style=" stroke:none;fill-rule:nonzero;fill:url(#radial1);" d="M 3.96875 28.035156 L 1.324219 28.035156 L 1.324219 29.355469 L 3.96875 29.355469 Z M 3.96875 28.035156 "/>
<path style=" stroke:none;fill-rule:nonzero;fill:url(#radial2);" d="M 3.96875 28.035156 L 1.324219 28.035156 L 1.324219 26.710938 L 3.96875 26.710938 Z M 3.96875 28.035156 "/>
<path style=" stroke:none;fill-rule:nonzero;fill:url(#radial3);" d="M 27.785156 28.035156 L 30.429688 28.035156 L 30.429688 29.355469 L 27.785156 29.355469 Z M 27.785156 28.035156 "/>
<path style=" stroke:none;fill-rule:nonzero;fill:rgb(61.176473%,80.000001%,39.607844%);fill-opacity:1;" d="M 7.277344 4.21875 L 28.777344 4.21875 C 29.507812 4.21875 30.097656 4.8125 30.097656 5.542969 L 30.097656 10.503906 C 30.097656 11.234375 29.507812 11.828125 28.777344 11.828125 L 7.277344 11.828125 C 6.546875 11.828125 5.953125 11.234375 5.953125 10.503906 L 5.953125 5.542969 C 5.953125 4.8125 6.546875 4.21875 7.277344 4.21875 Z M 7.277344 4.21875 "/>
<path style=" stroke:none;fill-rule:nonzero;fill:url(#linear1);" d="M 7.277344 4.21875 L 28.777344 4.21875 C 29.507812 4.21875 30.097656 4.8125 30.097656 5.542969 L 30.097656 10.503906 C 30.097656 11.234375 29.507812 11.828125 28.777344 11.828125 L 7.277344 11.828125 C 6.546875 11.828125 5.953125 11.234375 5.953125 10.503906 L 5.953125 5.542969 C 5.953125 4.8125 6.546875 4.21875 7.277344 4.21875 Z M 7.277344 4.21875 "/>
<path style=" stroke:none;fill-rule:nonzero;fill:rgb(90.196079%,90.196079%,90.196079%);fill-opacity:0.392157;" d="M 7.277344 4.308594 C 6.542969 4.308594 5.953125 4.898438 5.953125 5.628906 L 5.953125 5.796875 C 5.953125 5.0625 6.542969 4.472656 7.277344 4.472656 L 28.777344 4.472656 C 29.507812 4.472656 30.097656 5.0625 30.097656 5.796875 L 30.097656 5.628906 C 30.097656 4.898438 29.507812 4.308594 28.777344 4.308594 Z M 7.277344 4.308594 "/>
<path style=" stroke:none;fill-rule:nonzero;fill:rgb(12.941177%,12.941177%,12.941177%);fill-opacity:1;" d="M 7.277344 4.125 C 6.492188 4.125 5.859375 4.757812 5.859375 5.542969 L 5.859375 10.503906 C 5.859375 11.285156 6.492188 11.921875 7.277344 11.921875 L 28.777344 11.921875 C 29.558594 11.921875 30.191406 11.285156 30.191406 10.503906 L 30.191406 5.542969 C 30.191406 4.757812 29.558594 4.125 28.777344 4.125 Z M 7.277344 4.3125 L 28.777344 4.3125 C 29.457031 4.3125 30.003906 4.859375 30.003906 5.542969 L 30.003906 10.503906 C 30.003906 11.1875 29.457031 11.734375 28.777344 11.734375 L 7.277344 11.734375 C 6.59375 11.734375 6.046875 11.1875 6.046875 10.503906 L 6.046875 5.542969 C 6.046875 4.859375 6.59375 4.3125 7.277344 4.3125 Z M 7.277344 4.3125 "/>
<path style=" stroke:none;fill-rule:nonzero;fill:rgb(68.235296%,83.529413%,50.588238%);fill-opacity:1;" d="M 2.644531 6.863281 C 1.914062 6.863281 1.324219 7.457031 1.324219 8.1875 L 1.324219 26.710938 C 1.324219 27.445312 1.914062 28.035156 2.644531 28.035156 L 29.105469 28.035156 C 29.839844 28.035156 30.429688 27.445312 30.429688 26.710938 L 30.429688 10.171875 L 12.570312 10.171875 C 11.835938 10.171875 11.246094 9.582031 11.246094 8.851562 L 11.246094 6.863281 Z M 2.644531 6.863281 "/>
<path style=" stroke:none;fill-rule:nonzero;fill:url(#linear2);" d="M 2.644531 6.863281 C 1.914062 6.863281 1.324219 7.457031 1.324219 8.1875 L 1.324219 26.710938 C 1.324219 27.445312 1.914062 28.035156 2.644531 28.035156 L 29.105469 28.035156 C 29.839844 28.035156 30.429688 27.445312 30.429688 26.710938 L 30.429688 10.171875 L 12.570312 10.171875 C 11.835938 10.171875 11.246094 9.582031 11.246094 8.851562 L 11.246094 6.863281 Z M 2.644531 6.863281 "/>
<path style=" stroke:none;fill-rule:nonzero;fill:rgb(0%,0%,0%);fill-opacity:0.196078;" d="M 2.644531 28.035156 C 1.914062 28.035156 1.324219 27.445312 1.324219 26.710938 L 1.324219 26.546875 C 1.324219 27.277344 1.914062 27.867188 2.644531 27.867188 L 29.105469 27.867188 C 29.839844 27.867188 30.429688 27.277344 30.429688 26.546875 L 30.429688 26.710938 C 30.429688 27.445312 29.839844 28.035156 29.105469 28.035156 Z M 2.644531 28.035156 "/>
<path style=" stroke:none;fill-rule:nonzero;fill:rgb(90.196079%,90.196079%,90.196079%);fill-opacity:0.392157;" d="M 2.644531 6.949219 C 1.914062 6.949219 1.324219 7.539062 1.324219 8.269531 L 1.324219 8.4375 C 1.324219 7.703125 1.914062 7.113281 2.644531 7.113281 L 11.246094 7.113281 L 11.246094 6.949219 Z M 2.644531 6.949219 "/>
<path style=" stroke:none;fill-rule:nonzero;fill:rgb(90.196079%,90.196079%,90.196079%);fill-opacity:0.392157;" d="M 12.484375 10.339844 C 11.753906 10.339844 11.164062 9.75 11.164062 9.015625 L 11.164062 8.851562 C 11.164062 9.582031 11.753906 10.175781 12.484375 10.171875 L 30.429688 10.171875 L 30.429688 10.339844 Z M 12.484375 10.339844 "/>
<path style=" stroke:none;fill-rule:nonzero;fill:rgb(12.941177%,12.941177%,12.941177%);fill-opacity:1;" d="M 2.644531 6.769531 C 1.863281 6.769531 1.230469 7.40625 1.230469 8.1875 L 1.230469 26.710938 C 1.230469 27.496094 1.863281 28.128906 2.644531 28.128906 L 29.105469 28.128906 C 29.890625 28.128906 30.523438 27.496094 30.523438 26.710938 L 30.523438 9.984375 L 12.570312 9.984375 C 11.886719 9.984375 11.339844 9.4375 11.339844 8.757812 L 11.339844 6.769531 Z M 2.644531 6.960938 L 11.152344 6.960938 L 11.152344 8.757812 C 11.152344 9.539062 11.785156 10.171875 12.570312 10.171875 L 30.335938 10.171875 L 30.335938 26.710938 C 30.335938 27.394531 29.789062 27.941406 29.105469 27.941406 L 2.644531 27.941406 C 1.964844 27.941406 1.417969 27.394531 1.417969 26.710938 L 1.417969 8.1875 C 1.417969 7.503906 1.964844 6.960938 2.644531 6.960938 Z M 2.644531 6.960938 "/>
<path style=" stroke:none;fill-rule:nonzero;fill:rgb(54.509807%,76.47059%,29.019609%);fill-opacity:1;" d="M 12.863281 12.789062 C 11.996094 12.789062 11.261719 13.339844 10.992188 14.109375 L 10.878906 14.109375 C 10.511719 14.109375 10.21875 14.40625 10.21875 14.773438 C 10.21875 15.140625 10.511719 15.433594 10.878906 15.433594 L 10.992188 15.433594 C 11.261719 16.207031 11.996094 16.757812 12.863281 16.757812 C 13.15625 16.757812 13.433594 16.695312 13.683594 16.582031 L 17.667969 20.570312 C 17.558594 20.820312 17.496094 21.097656 17.496094 21.386719 C 17.496094 22.488281 18.378906 23.371094 19.480469 23.371094 C 20.578125 23.371094 21.464844 22.488281 21.464844 21.386719 C 21.464844 20.289062 20.578125 19.402344 19.480469 19.402344 C 19.15625 19.402344 18.855469 19.480469 18.585938 19.613281 L 14.636719 15.667969 C 14.675781 15.589844 14.707031 15.515625 14.738281 15.433594 L 17.605469 15.433594 C 17.878906 16.207031 18.613281 16.757812 19.480469 16.757812 C 20.578125 16.757812 21.464844 15.871094 21.464844 14.773438 C 21.464844 13.671875 20.578125 12.789062 19.480469 12.789062 C 18.613281 12.789062 17.878906 13.339844 17.605469 14.109375 L 14.738281 14.109375 C 14.464844 13.339844 13.730469 12.789062 12.863281 12.789062 Z M 12.863281 12.789062 "/>
<path style=" stroke:none;fill-rule:nonzero;fill:rgb(0%,0%,0%);fill-opacity:0.235294;" d="M 12.863281 12.789062 C 11.996094 12.789062 11.261719 13.339844 10.992188 14.109375 L 10.878906 14.109375 C 10.511719 14.109375 10.21875 14.40625 10.21875 14.773438 C 10.21875 14.8125 10.222656 14.855469 10.230469 14.894531 C 10.285156 14.585938 10.554688 14.355469 10.878906 14.355469 L 10.992188 14.355469 C 11.261719 13.582031 11.996094 13.03125 12.863281 13.03125 C 13.730469 13.03125 14.464844 13.582031 14.738281 14.355469 L 17.605469 14.355469 C 17.878906 13.582031 18.613281 13.03125 19.480469 13.03125 C 20.539062 13.03125 21.398438 13.851562 21.460938 14.894531 C 21.460938 14.855469 21.464844 14.8125 21.464844 14.773438 C 21.464844 13.671875 20.578125 12.789062 19.480469 12.789062 C 18.613281 12.789062 17.878906 13.339844 17.605469 14.109375 L 14.738281 14.109375 C 14.464844 13.339844 13.730469 12.789062 12.863281 12.789062 Z M 14.710938 15.742188 C 14.691406 15.800781 14.664062 15.855469 14.636719 15.910156 L 18.585938 19.859375 C 18.855469 19.722656 19.15625 19.648438 19.480469 19.648438 C 20.539062 19.648438 21.398438 20.46875 21.460938 21.507812 C 21.460938 21.46875 21.464844 21.429688 21.464844 21.386719 C 21.464844 20.289062 20.578125 19.402344 19.480469 19.402344 C 19.15625 19.402344 18.855469 19.480469 18.585938 19.613281 Z M 17.601562 20.746094 C 17.53125 20.945312 17.496094 21.164062 17.496094 21.386719 C 17.496094 21.429688 17.496094 21.46875 17.5 21.507812 C 17.511719 21.261719 17.574219 21.027344 17.667969 20.8125 Z M 17.601562 20.746094 "/>
<path style=" stroke:none;fill-rule:nonzero;fill:rgb(12.941177%,12.941177%,12.941177%);fill-opacity:1;" d="M 12.863281 12.695312 C 11.980469 12.695312 11.234375 13.242188 10.929688 14.015625 L 10.878906 14.015625 C 10.464844 14.015625 10.125 14.355469 10.125 14.773438 C 10.125 15.1875 10.464844 15.527344 10.878906 15.527344 L 10.929688 15.527344 C 11.234375 16.300781 11.980469 16.851562 12.863281 16.851562 C 13.144531 16.851562 13.410156 16.789062 13.65625 16.6875 L 17.5625 20.597656 C 17.460938 20.839844 17.402344 21.105469 17.402344 21.386719 C 17.402344 22.539062 18.328125 23.464844 19.480469 23.464844 C 20.628906 23.464844 21.558594 22.539062 21.558594 21.386719 C 21.558594 20.238281 20.628906 19.308594 19.480469 19.308594 C 19.167969 19.308594 18.875 19.382812 18.609375 19.507812 L 14.75 15.644531 C 14.765625 15.605469 14.78125 15.566406 14.796875 15.527344 L 17.546875 15.527344 C 17.847656 16.300781 18.597656 16.851562 19.480469 16.851562 C 20.628906 16.851562 21.558594 15.921875 21.558594 14.773438 C 21.558594 13.621094 20.628906 12.695312 19.480469 12.695312 C 18.597656 12.695312 17.847656 13.242188 17.546875 14.015625 L 14.796875 14.015625 C 14.496094 13.242188 13.746094 12.695312 12.863281 12.695312 Z M 12.863281 12.882812 C 13.691406 12.882812 14.390625 13.40625 14.648438 14.140625 L 14.738281 14.203125 L 17.605469 14.203125 L 17.695312 14.140625 C 17.953125 13.40625 18.652344 12.882812 19.480469 12.882812 C 20.527344 12.882812 21.371094 13.722656 21.371094 14.773438 C 21.371094 15.820312 20.527344 16.664062 19.480469 16.664062 C 18.652344 16.664062 17.953125 16.136719 17.695312 15.402344 L 17.605469 15.339844 L 14.738281 15.339844 L 14.648438 15.402344 C 14.621094 15.480469 14.589844 15.554688 14.554688 15.625 L 14.570312 15.734375 L 18.519531 19.679688 L 18.628906 19.699219 C 18.882812 19.570312 19.171875 19.496094 19.480469 19.496094 C 20.527344 19.496094 21.371094 20.339844 21.371094 21.386719 C 21.371094 22.4375 20.527344 23.277344 19.480469 23.277344 C 18.429688 23.277344 17.589844 22.4375 17.589844 21.386719 C 17.589844 21.109375 17.648438 20.84375 17.753906 20.609375 L 17.734375 20.503906 L 13.75 16.515625 L 13.644531 16.496094 C 13.40625 16.605469 13.144531 16.664062 12.863281 16.664062 C 12.035156 16.664062 11.339844 16.136719 11.082031 15.402344 L 10.992188 15.339844 L 10.878906 15.339844 C 10.5625 15.339844 10.3125 15.089844 10.3125 14.773438 C 10.3125 14.457031 10.5625 14.203125 10.878906 14.203125 L 10.992188 14.203125 L 11.082031 14.140625 C 11.339844 13.40625 12.035156 12.882812 12.863281 12.882812 Z M 12.863281 12.882812 "/>
<path style=" stroke:none;fill-rule:nonzero;fill:rgb(100%,100%,100%);fill-opacity:0.392157;" d="M 10.222656 14.949219 C 10.21875 14.976562 10.21875 15.003906 10.21875 15.03125 C 10.21875 15.398438 10.511719 15.695312 10.878906 15.695312 L 10.992188 15.695312 C 11.261719 16.464844 11.996094 17.015625 12.863281 17.015625 C 13.15625 17.015625 13.433594 16.953125 13.683594 16.84375 L 17.621094 20.78125 C 17.636719 20.742188 17.652344 20.703125 17.667969 20.664062 L 13.683594 16.675781 C 13.433594 16.789062 13.15625 16.851562 12.863281 16.851562 C 11.996094 16.851562 11.261719 16.300781 10.992188 15.527344 L 10.878906 15.527344 C 10.542969 15.527344 10.265625 15.277344 10.222656 14.949219 Z M 21.460938 14.949219 C 21.417969 16.011719 20.550781 16.851562 19.480469 16.851562 C 18.613281 16.851562 17.878906 16.300781 17.605469 15.527344 L 14.738281 15.527344 C 14.707031 15.609375 14.675781 15.6875 14.636719 15.761719 L 14.691406 15.8125 C 14.707031 15.773438 14.722656 15.734375 14.738281 15.695312 L 17.605469 15.695312 C 17.878906 16.464844 18.613281 17.015625 19.480469 17.015625 C 20.578125 17.015625 21.464844 16.132812 21.464844 15.03125 C 21.464844 15.003906 21.464844 14.976562 21.460938 14.949219 Z M 21.460938 21.566406 C 21.417969 22.625 20.550781 23.464844 19.480469 23.464844 C 18.40625 23.464844 17.539062 22.625 17.496094 21.566406 C 17.496094 21.59375 17.496094 21.621094 17.496094 21.648438 C 17.496094 22.746094 18.378906 23.632812 19.480469 23.632812 C 20.578125 23.632812 21.464844 22.746094 21.464844 21.648438 C 21.464844 21.621094 21.464844 21.59375 21.460938 21.566406 Z M 21.460938 21.566406 "/>
</g>
</svg>

<svg xmlns="http://www.w3.org/2000/svg" width="32" height="32"><defs><linearGradient id="a" gradientUnits="userSpaceOnUse" x1="254" y1="233.5" x2="254" y2="254.667" gradientTransform="matrix(.0625 0 0 .0625 0 13.439)"><stop offset="0" stop-opacity=".275"/><stop offset="1" stop-opacity="0"/></linearGradient><radialGradient id="b" gradientUnits="userSpaceOnUse" cx="450.909" cy="189.579" fx="450.909" fy="189.579" r="21.167" gradientTransform="matrix(0 -.07813 -.14064 0 54.115 63.595)"><stop offset="0" stop-opacity=".314"/><stop offset=".222" stop-opacity=".275"/><stop offset="1" stop-opacity="0"/></radialGradient><radialGradient id="c" gradientUnits="userSpaceOnUse" cx="450.909" cy="189.579" fx="450.909" fy="189.579" r="21.167" gradientTransform="matrix(0 .07813 .14064 0 -22.362 -7.527)"><stop offset="0" stop-opacity=".314"/><stop offset=".222" stop-opacity=".275"/><stop offset="1" stop-opacity="0"/></radialGradient><radialGradient id="d" gradientUnits="userSpaceOnUse" cx="450.909" cy="189.579" fx="450.909" fy="189.579" r="21.167" gradientTransform="matrix(0 -.07813 .14064 0 -22.362 63.595)"><stop offset="0" stop-opacity=".314"/><stop offset=".222" stop-opacity=".275"/><stop offset="1" stop-opacity="0"/></radialGradient><radialGradient id="e" gradientUnits="userSpaceOnUse" cx="450.909" cy="189.579" fx="450.909" fy="189.579" r="21.167" gradientTransform="matrix(0 .07813 -.14064 0 54.115 -7.527)"><stop offset="0" stop-opacity=".314"/><stop offset=".222" stop-opacity=".275"/><stop offset="1" stop-opacity="0"/></radialGradient><linearGradient id="f" gradientUnits="userSpaceOnUse" x1="254" y1="-147.5" x2="254" y2="-31.083" gradientTransform="matrix(.0625 0 0 .0625 0 13.439)"><stop offset="0" stop-color="#a4a4a4" stop-opacity="0"/><stop offset="1" stop-color="#fff" stop-opacity=".196"/></linearGradient><linearGradient id="g" gradientUnits="userSpaceOnUse" x1="254" y1="233.5" x2="254" y2="-105.167" gradientTransform="matrix(.0625 0 0 .0625 0 13.439)"><stop offset="0" stop-color="#585858" stop-opacity="0"/><stop offset="1" stop-color="#fafafa" stop-opacity=".196"/></linearGradient><linearGradient id="h" gradientUnits="userSpaceOnUse" x1="254" y1="-147.5" x2="254" y2="233.5" gradientTransform="matrix(.0625 0 0 .0625 0 13.439)"><stop offset="0" stop-color="#a4a4a4" stop-opacity="0"/><stop offset="1" stop-color="#fff" stop-opacity=".196"/></linearGradient></defs><path d="M3.969 28.035h23.816v1.32H3.97zm0 0" fill="url(#a)"/><path d="M27.785 28.035h2.645v-1.324h-2.645zm0 0" fill="url(#b)"/><path d="M3.969 28.035H1.324v1.32H3.97zm0 0" fill="url(#c)"/><path d="M3.969 28.035H1.324v-1.324H3.97zm0 0" fill="url(#d)"/><path d="M27.785 28.035h2.645v1.32h-2.645zm0 0" fill="url(#e)"/><path d="M7.277 4.219h21.5c.73 0 1.32.593 1.32 1.324v4.96c0 .731-.59 1.325-1.32 1.325h-21.5c-.73 0-1.324-.594-1.324-1.324V5.543c0-.73.594-1.324 1.324-1.324zm0 0" fill="#7cb342"/><path d="M7.277 4.219h21.5c.73 0 1.32.593 1.32 1.324v4.96c0 .731-.59 1.325-1.32 1.325h-21.5c-.73 0-1.324-.594-1.324-1.324V5.543c0-.73.594-1.324 1.324-1.324zm0 0" fill="url(#f)"/><path d="M7.277 4.219a1.32 1.32 0 0 0-1.324 1.324v.164c0-.734.59-1.324 1.324-1.324h21.5c.73 0 1.32.59 1.32 1.324v-.164a1.32 1.32 0 0 0-1.32-1.324zm0 0" fill="#e6e6e6" fill-opacity=".588"/><path d="M7.277 4.125c-.785 0-1.418.633-1.418 1.418v4.96c0 .782.633 1.419 1.418 1.419h21.5c.782 0 1.414-.637 1.414-1.418V5.543c0-.785-.632-1.418-1.414-1.418zm0 .188h21.5c.68 0 1.227.546 1.227 1.23v4.96c0 .684-.547 1.231-1.227 1.231h-21.5c-.683 0-1.23-.546-1.23-1.23V5.543c0-.684.547-1.23 1.23-1.23zm0 0" fill="#212121"/><path d="M2.645 6.863c-.73 0-1.32.594-1.32 1.324v18.524c0 .734.59 1.324 1.32 1.324h26.46a1.32 1.32 0 0 0 1.325-1.324V10.17H12.57a1.32 1.32 0 0 1-1.324-1.32V6.864zm0 0" fill="#9ccc65"/><path d="M2.645 6.867c-.73 0-1.32.59-1.32 1.32v18.524c0 .734.59 1.324 1.32 1.324h26.46a1.32 1.32 0 0 0 1.325-1.324V10.17H12.57a1.32 1.32 0 0 1-1.324-1.32V6.868zm0 0" fill="url(#g)"/><path d="M2.645 28.035c-.73 0-1.32-.59-1.32-1.324v-.164c0 .73.59 1.32 1.32 1.32h26.46a1.32 1.32 0 0 0 1.325-1.32v.164a1.32 1.32 0 0 1-1.325 1.324zm0 0" fill-opacity=".196"/><path d="M2.645 6.863c-.73 0-1.32.594-1.32 1.324v.168c0-.734.59-1.324 1.32-1.324h8.601v-.168zm0 0M12.484 10.254c-.73 0-1.32-.59-1.32-1.32v-.168c0 .734.59 1.324 1.32 1.324H30.43v.164zm0 0" fill="#e6e6e6" fill-opacity=".937"/><path d="M2.645 6.77c-.782 0-1.415.636-1.415 1.418V26.71c0 .785.633 1.418 1.415 1.418h26.46c.786 0 1.418-.633 1.418-1.418V9.984H12.57c-.683 0-1.23-.546-1.23-1.226V6.77zm0 .19h8.507v1.798c0 .781.633 1.414 1.418 1.414h17.766V26.71c0 .684-.547 1.23-1.23 1.23H2.644c-.68 0-1.227-.546-1.227-1.23V8.188c0-.684.547-1.227 1.227-1.227zm0 0" fill="#212121"/><path d="M12.863 12.79c-.867 0-1.601.55-1.87 1.32h-.114a.66.66 0 0 0-.66.663c0 .368.293.66.66.66h.113a1.976 1.976 0 0 0 1.871 1.325c.293 0 .57-.063.82-.176l3.985 3.988c-.11.25-.172.528-.172.817 0 1.101.883 1.984 1.984 1.984a1.98 1.98 0 0 0 1.985-1.984 1.982 1.982 0 0 0-1.985-1.985c-.324 0-.625.078-.894.211l-3.95-3.945c.04-.078.071-.152.102-.234h2.867a1.985 1.985 0 0 0 1.875 1.324 1.982 1.982 0 0 0 1.985-1.985 1.98 1.98 0 0 0-1.985-1.984c-.867 0-1.601.55-1.875 1.32h-2.867a1.987 1.987 0 0 0-1.875-1.32zm0 0" fill="#7cb342"/><path d="M12.863 12.79c-.867 0-1.601.55-1.87 1.32h-.114a.66.66 0 0 0-.66.663c0 .368.293.66.66.66h.113a1.976 1.976 0 0 0 1.871 1.325c.293 0 .57-.063.82-.176l3.985 3.988c-.11.25-.172.528-.172.817 0 1.101.883 1.984 1.984 1.984a1.98 1.98 0 0 0 1.985-1.984 1.982 1.982 0 0 0-1.985-1.985c-.324 0-.625.078-.894.211l-3.95-3.945c.04-.078.071-.152.102-.234h2.867a1.985 1.985 0 0 0 1.875 1.324 1.982 1.982 0 0 0 1.985-1.985 1.98 1.98 0 0 0-1.985-1.984c-.867 0-1.601.55-1.875 1.32h-2.867a1.987 1.987 0 0 0-1.875-1.32zm0 0" fill="url(#h)"/><path d="M12.863 12.695c-.883 0-1.629.547-1.933 1.32h-.051a.757.757 0 0 0 0 1.512h.05a2.078 2.078 0 0 0 1.934 1.325c.282 0 .547-.063.793-.165l3.906 3.91a2.072 2.072 0 0 0 1.918 2.867 2.075 2.075 0 0 0 2.079-2.077c0-1.149-.93-2.078-2.079-2.078-.312 0-.605.074-.87.199l-3.86-3.863.047-.118h2.75a2.077 2.077 0 0 0 4.012-.754c0-1.152-.93-2.078-2.079-2.078a2.07 2.07 0 0 0-1.933 1.32h-2.75a2.07 2.07 0 0 0-1.934-1.32zm0 .188c.828 0 1.528.523 1.785 1.258l.09.062h2.867l.09-.062a1.885 1.885 0 0 1 1.785-1.258c1.047 0 1.891.84 1.891 1.89 0 1.047-.844 1.891-1.89 1.891a1.889 1.889 0 0 1-1.786-1.262l-.09-.062h-2.867l-.09.062a1.903 1.903 0 0 1-.093.223l.015.11 3.95 3.945.109.02a1.887 1.887 0 0 1 2.742 1.688c0 1.05-.844 1.89-1.89 1.89-1.051 0-1.891-.84-1.891-1.891 0-.278.058-.543.164-.778l-.02-.105-3.984-3.988-.105-.02c-.239.11-.5.168-.782.168a1.884 1.884 0 0 1-1.781-1.262l-.09-.062h-.113a.562.562 0 0 1-.566-.567c0-.316.25-.57.566-.57h.113l.09-.062a1.88 1.88 0 0 1 1.781-1.258zm0 0" fill="#212121"/></svg>
